assets/images/afrikons/home.svg

<svg viewBox="0 0 47.93 50" xmlns="http://www.w3.org/2000/svg"><path d="m42.6 22-18.39-14.14v-2.2.74a.75.75 0 0 0 .52-.8l-.55-5.41a.21.21 0 0 0 -.42 0l-.57 5.41a.75.75 0 0 0 .52.8v1.47l-18.35 14.13a12.67 12.67 0 0 0 -5.36 11.08 1 1 0 0 0 .72 1 1.5 1.5 0 0 0 1.62-.54l.46-.6a3.1 3.1 0 0 1 1.9-1.3.46.46 0 0 1 .57.46v17.06a.85.85 0 0 0 .85.84h14.08a1 1 0 0 0 .95-1v-8.89a.94.94 0 0 1 .94-.94h3.75a1 1 0 0 1 .95.94v8.94a.94.94 0 0 0 .94 1h14.11a.85.85 0 0 0 .85-.85v-17a.47.47 0 0 1 .56-.47 3.12 3.12 0 0 1 1.89 1.27l.42.63a1.29 1.29 0 0 0 2.37-.74 13.66 13.66 0 0 0 -5.33-10.89z" fill="#0a0a0a"/></svg>

<svg xmlns="http://www.w3.org/2000/svg" viewBox="0 0 47.93 50"><defs><style>.cls-1{fill:#0a0a0a;}</style></defs><title>home</title><g id="Layer_2" data-name="Layer 2"><g id="Layer_1-2" data-name="Layer 1"><path class="cls-1" d="M42.6,22,24.21,7.86V5.66h0V6.4a.75.75,0,0,0,.52-.8L24.18.19a.21.21,0,0,0-.42,0L23.19,5.6a.75.75,0,0,0,.52.8V7.87L5.36,22A12.67,12.67,0,0,0,0,33.08a1,1,0,0,0,.72,1,1.5,1.5,0,0,0,1.62-.54l.46-.6A3.1,3.1,0,0,1,4.7,31.64a.46.46,0,0,1,.57.46V49.16a.85.85,0,0,0,.85.84H20.2a1,1,0,0,0,.95-1V40.11a.94.94,0,0,1,.94-.94h3.75a1,1,0,0,1,.95.94v8.94a.94.94,0,0,0,.94,1H41.84a.85.85,0,0,0,.85-.85v-17a.47.47,0,0,1,.56-.47A3.12,3.12,0,0,1,45.14,33l.42.63a1.29,1.29,0,0,0,2.37-.74A13.66,13.66,0,0,0,42.6,22Z"/></g></g></svg>
